src/Icon/svgs/GiftOutline.svg

<svg width="24" height="24" viewBox="0 0 24 24" fill="none" xmlns="http://www.w3.org/2000/svg">
<path fill-rule="evenodd" clip-rule="evenodd" d="M21 6H17.6632C17.8792 5.54537 18 5.0368 18 4.5C18 2.567 16.433 1 14.5 1C13.5207 1 12.6353 1.40223 12 2.05051C11.3647 1.40223 10.4793 1 9.5 1C7.567 1 6 2.567 6 4.5C6 5.0368 6.12085 5.54537 6.33682 6H3C2.44772 6 2 6.44772 2 7V11C2 11.5523 2.44772 12 3 12L3 20C3 20.5523 3.44772 21 4 21H20C20.5523 21 21 20.5523 21 20V12C21.5523 12 22 11.5523 22 11V7C22 6.44772 21.5523 6 21 6ZM4 8V10H11V8H4ZM13 8V10H20V8H13ZM11 12H5V19H11V12ZM13 19V12H19V19H13ZM15 5.91465C14.8436 5.96992 14.6753 6 14.5 6H13V4.5C13 4.32468 13.0301 4.15639 13.0854 4C13.2913 3.4174 13.8469 3 14.5 3C15.3284 3 16 3.67157 16 4.5C16 5.15311 15.5826 5.70873 15 5.91465ZM11 4.5V6H9.5C9.32468 6 9.15639 5.96992 9 5.91465C8.4174 5.70873 8 5.15311 8 4.5C8 3.67157 8.67157 3 9.5 3C10.1531 3 10.7087 3.4174 10.9146 4C10.9699 4.15639 11 4.32468 11 4.5Z" fill="#1B1C1D"/>
</svg>

<svg xmlns="http://www.w3.org/2000/svg" width="24" height="24" fill="none"><path fill-rule="evenodd" d="M21 6h-3.337c.216-.455.337-.963.337-1.5A3.5 3.5 0 0 0 14.5 1 3.49 3.49 0 0 0 12 2.051 3.49 3.49 0 0 0 9.5 1 3.5 3.5 0 0 0 6 4.5c0 .537.121 1.045.337 1.5H3a1 1 0 0 0-1 1v4a1 1 0 0 0 1 1v8a1 1 0 0 0 1 1h16a1 1 0 0 0 1-1v-8a1 1 0 0 0 1-1V7a1 1 0 0 0-1-1zM4 8v2h7V8H4zm9 0v2h7V8h-7zm-2 4H5v7h6v-7zm2 7v-7h6v7h-6zm2-13.085a1.5 1.5 0 0 1-.5.085H13V4.5c0-.175.03-.344.085-.5A1.5 1.5 0 1 1 15 5.915zM11 4.5V6H9.5a1.5 1.5 0 1 1 1.415-2c.055.156.085.325.085.5z" fill="#1B1C1D"/></svg>
